packages/katcn/src/icons/svg/customization.svg

<svg width="24" height="25" viewBox="0 0 24 25" fill="none" xmlns="http://www.w3.org/2000/svg">
<path d="M20.1176 18.4549H18C17.6471 17.1692 16.5 16.312 15.0882 16.312C13.4118 16.312 12 17.6834 12 19.312C12 20.9406 13.4118 22.312 15.0882 22.312C16.5 22.312 17.6471 21.4549 18 20.1692H20.1176C20.6471 20.1692 21 19.7406 21 19.312C21 18.7977 20.6471 18.4549 20.1176 18.4549ZM15.0882 20.5977C14.3824 20.5977 13.7647 19.9977 13.7647 19.312C13.7647 18.6263 14.3824 18.0263 15.0882 18.0263C15.7941 18.0263 16.4118 18.6263 16.4118 19.312C16.4118 19.9977 15.7941 20.5977 15.0882 20.5977Z" fill="black"/>
<path d="M10.1489 18.312H3.85106C3.34043 18.312 3 18.812 3 19.312C3 19.912 3.42553 20.312 3.85106 20.312H10.1489C10.6596 20.312 11 19.812 11 19.312C11 18.712 10.5745 18.312 10.1489 18.312Z" fill="black"/>
<path d="M3.85106 6.31201H10.1489C10.6596 6.31201 11 5.81201 11 5.31201C11 4.81201 10.5745 4.31201 10.1489 4.31201H3.85106C3.34043 4.31201 3 4.81201 3 5.31201C3 5.81201 3.42553 6.31201 3.85106 6.31201Z" fill="black"/>
<path d="M15.0882 8.31201C16.5 8.31201 17.6471 7.45487 18 6.16915H20.1176C20.6471 6.16915 21 5.74058 21 5.31201C21 4.88344 20.5588 4.45487 20.1176 4.45487H18C17.6471 3.16915 16.5 2.31201 15.0882 2.31201C13.4118 2.31201 12 3.68344 12 5.31201C12 6.94058 13.4118 8.31201 15.0882 8.31201ZM15.0882 4.0263C15.7941 4.0263 16.4118 4.6263 16.4118 5.31201C16.4118 5.99773 15.7941 6.59773 15.0882 6.59773C14.3824 6.59773 13.7647 5.99773 13.7647 5.31201C13.7647 4.6263 14.3824 4.0263 15.0882 4.0263Z" fill="black"/>
<path d="M3.88235 13.1692H6C6.35294 14.3692 7.5 15.312 8.91176 15.312C10.5882 15.312 12 13.9406 12 12.312C12 10.6834 10.5882 9.31201 8.91176 9.31201C7.5 9.31201 6.35294 10.1692 6 11.4549H3.88235C3.35294 11.4549 3 11.8834 3 12.312C3 12.7406 3.44118 13.1692 3.88235 13.1692ZM8.91176 11.0263C9.61765 11.0263 10.2353 11.6263 10.2353 12.312C10.2353 12.9977 9.61765 13.5977 8.91176 13.5977C8.20588 13.5977 7.58824 12.9977 7.58824 12.312C7.58824 11.6263 8.20588 11.0263 8.91176 11.0263Z" fill="black"/>
<path d="M20.1398 11.312H13.8602C13.3441 11.312 13 11.812 13 12.312C13 12.812 13.4301 13.312 13.8602 13.312H20.1398C20.6559 13.312 21 12.812 21 12.312C21 11.812 20.6559 11.312 20.1398 11.312Z" fill="black"/>
</svg>

<svg xmlns="http://www.w3.org/2000/svg" fill="none" viewBox="0 0 24 25"><path fill="#000" d="M20.118 18.455H18c-.353-1.286-1.5-2.143-2.912-2.143-1.676 0-3.088 1.371-3.088 3s1.412 3 3.088 3c1.412 0 2.56-.857 2.912-2.143h2.118a.87.87 0 0 0 .882-.857c0-.514-.353-.857-.882-.857m-5.03 2.143c-.706 0-1.323-.6-1.323-1.286s.617-1.286 1.323-1.286 1.324.6 1.324 1.286-.618 1.286-1.324 1.286m-4.939-2.286H3.85c-.51 0-.851.5-.851 1 0 .6.426 1 .851 1h6.298c.51 0 .851-.5.851-1 0-.6-.425-1-.851-1m-6.297-12h6.298c.51 0 .851-.5.851-1s-.425-1-.851-1H3.85c-.51 0-.851.5-.851 1s.426 1 .851 1m11.238 2c1.412 0 2.56-.857 2.912-2.143h2.118c.53 0 .882-.428.882-.857s-.441-.857-.882-.857H18c-.353-1.286-1.5-2.143-2.912-2.143-1.676 0-3.088 1.371-3.088 3s1.412 3 3.088 3m0-4.286c.706 0 1.324.6 1.324 1.286s-.618 1.286-1.324 1.286-1.323-.6-1.323-1.286.617-1.286 1.323-1.286M3.882 13.17H6c.353 1.2 1.5 2.142 2.912 2.142 1.676 0 3.088-1.371 3.088-3s-1.412-3-3.088-3c-1.412 0-2.56.857-2.912 2.143H3.882a.87.87 0 0 0-.882.857c0 .429.441.857.882.857m5.03-2.144c.706 0 1.323.6 1.323 1.286s-.617 1.286-1.323 1.286-1.324-.6-1.324-1.286.618-1.286 1.324-1.286m11.228.287h-6.28c-.516 0-.86.5-.86 1s.43 1 .86 1h6.28c.516 0 .86-.5.86-1s-.344-1-.86-1"/></svg>
